X: 03801
T: Lancers "Oriental"
T: Figure I
B: Henry Ford's "Good Morning"
Z: 2011 John Chambers <jc:trillian.mit.edu>
N: Records No.104-A and No.105-A
R: jig
M: 6/8
L: 1/8
K: D
(A/B/) |\
"D"Az(a/b/) az(f/g/) | fz(d/e/) dzB | ABc def | "A7"gec A2(g/a/) |\
"A7"gz(e/f/) ez(c/d/) | cz(A/B/) AzG | "D"FAd "A7"cAe | "D"dzz [dAF]z Hy ||
K: A
(c/d/) |\
"A"efe "E7"dcB | "A"Ace [a3c3A3] | "E7"[gd]fe dBe | "A"cea [c'2c2](c/d/) |\
"A"efe "E7"dcB | "A"Ace [a3c3A3] | "E7"gfe dBe | "A"Azz [aecA]z(a/^a/) ||
K: D
"A7"[bd]z(f [gB])z(^d | "A7"[eG])z^B (K[c2E2]=B) | "D"AFA dAd | fdf a2(a/^a/) |\
"A7"[bd]z(f [gB])z(^d | "A7"[eG])zc (K[A2E2]B) | "A"(Aa)a "E7"^gfe | "A"azz "A7"[ac]"D.C."z |]


%%sep 5 1 500

